F[BALLADE
CUT[Graf und Nonne (Die Nonne)
    Steig auf jenes Beargilei,]
CNR[schau hinab ins tiaferi Teich,]
REG[Suedosteuropa, Rumaenien, Sathmar, Arded, Scheindorf]
SRC[8, S. 87
    1937 aufgezeichnet]
KEY[Q0155d 16  E 4/4]
MEL[  5__4__3__5__  4__3__2___
    5__4__3__2__  1__2_3_2__
    -5__  3_.21_.-73_2_1__  1__6__5__
    4__  3_5_3__2_312__  1___0___ //] >>
FCT[Ballade, Standesunterschied, vergebliche Werbung, Liebe, Klage]
CMT[Schlusspause korrigiert.]
